neru-light-classic/32x32/apps/litecoin-qt.svg

<?xml version="1.0" encoding="UTF-8" standalone="no"?>
<svg
   xmlns:dc="http://purl.org/dc/elements/1.1/"
   xmlns:cc="http://creativecommons.org/ns#"
   xmlns:rdf="http://www.w3.org/1999/02/22-rdf-syntax-ns#"
   xmlns:svg="http://www.w3.org/2000/svg"
   xmlns="http://www.w3.org/2000/svg"
   xmlns:sodipodi="http://sodipodi.sourceforge.net/DTD/sodipodi-0.dtd"
   xmlns:inkscape="http://www.inkscape.org/namespaces/inkscape"
   width="32"
   height="32"
   version="1.1"
   viewBox="0 0 32 32"
   id="svg14"
   sodipodi:docname="litecoin-qt.svg"
   inkscape:version="0.92.1 r">
  <metadata
     id="metadata20">
    <rdf:RDF>
      <cc:Work
         rdf:about="">
        <dc:format>image/svg+xml</dc:format>
        <dc:type
           rdf:resource="http://purl.org/dc/dcmitype/StillImage" />
      </cc:Work>
    </rdf:RDF>
  </metadata>
  <defs
     id="defs18" />
  <sodipodi:namedview
     pagecolor="#ffffff"
     bordercolor="#666666"
     borderopacity="1"
     objecttolerance="10"
     gridtolerance="10"
     guidetolerance="10"
     inkscape:pageopacity="0"
     inkscape:pageshadow="2"
     inkscape:window-width="640"
     inkscape:window-height="480"
     id="namedview16"
     showgrid="false"
     inkscape:zoom="8.9375"
     inkscape:cx="-5.3706294"
     inkscape:cy="16"
     inkscape:current-layer="svg14" />
  <rect
     style="opacity:1;fill:#4f4f4f;fill-opacity:1;fill-rule:evenodd;stroke:none;stroke-width:1.03534329;stroke-linecap:round;stroke-linejoin:bevel;stroke-miterlimit:4;stroke-dasharray:none;stroke-dashoffset:0;stroke-opacity:1"
     id="rect4497-3"
     width="28.203388"
     height="28.203388"
     x="1.8983059"
     y="1.8983059"
     ry="5.575182"
     inkscape:export-filename="/home/ramil/3.png"
     inkscape:export-xdpi="71"
     inkscape:export-ydpi="71" />
  <path
     style="fill:#ffffff"
     d="M 16,5.9999998 A 10,10 0 0 1 26,16 10,10 0 0 1 16,26 10,10 0 0 1 6,16 10,10 0 0 1 16,5.9999998 Z"
     id="path8"
     inkscape:connector-curvature="0" />
  <path
     style="fill:#4f4f4f"
     d="M 13.5,8.9999998 11.541992,14.959961 10,15.5 9,19.5 10.404297,19.008789 9,23 h 6 7 l 1,-4 H 16.265625 L 17.058594,16.679687 19,16 20,12 18.197265,12.63086 19.5,8.9999998 Z"
     id="path10"
     inkscape:connector-curvature="0" />
</svg>

<svg xmlns="http://www.w3.org/2000/svg" width="32" height="32"><rect width="28.203" height="28.203" x="1.898" y="1.898" ry="5.575" fill="#4f4f4f" fill-rule="evenodd"/><path d="M16 6a10 10 0 0 1 10 10 10 10 0 0 1-10 10A10 10 0 0 1 6 16 10 10 0 0 1 16 6z" fill="#fff"/><path d="M13.5 9l-1.958 5.96L10 15.5l-1 4 1.404-.491L9 23h13l1-4h-6.734l.793-2.32L19 16l1-4-1.803.63L19.5 9z" fill="#4f4f4f"/></svg>
